X:1     %Music
T:My True Love once He courted Me 
B:Kidson F, 1891, <I>Traditional Tunes</I>, Oxford, Taphouse and Son
Z:Frank Kidson
S:Mr Charles Lotley
F:http://www.folkinfo.org/songs
M:6/4     %Meter
L:1/8     %
K:C
A2 |G4 A2 G4 E2 |E2 C2 D2 C4 G2 |c4 _B2 A2 G2 F2 |
w:A rich young farm-er court-*ed me, He stole my heart_ and 
_B4 A2 G4 c2 |c4 _B2 A2 G2 A2 |C4 D2 _E2 E2 C2 |F4 G2 _B4 A2 |
w:li-ber-ty; He stole my heart with my free good-will_ I must con-fess I 
G2 F2 D2 C4 |]
w:love_ him still. 